actions/32/call-start.svg

<svg xmlns="http://www.w3.org/2000/svg" viewBox="0 0 32 32">
  <defs id="defs3051">
    <style type="text/css" id="current-color-scheme">
      .ColorScheme-Text {
        color:#808080;
      }
      </style>
  </defs>
 <path style="fill:currentColor;fill-opacity:1;stroke:none" 
       d="m15.861 24.946c2.724 2.724 6.539 3.608 10.01 2.722l1.661-1.661c0 0 1.061-1.061 0-2.121l-4.561-4.561c-1.061-1.061-2.121 0-2.121 0l-.53.53c-.881.881-2.301.881-3.182 0l-4.989-4.989c-.881-.881-.881-2.301 0-3.182l.53-.53c0 0 1.061-1.061 0-2.121l-4.561-4.561c-1.061-1.061-2.121 0-2.121 0l-1.661 1.661c-.886 3.467-.002 7.282 2.722 10.01z"
     class="ColorScheme-Text"
     />
</svg>

<svg xmlns="http://www.w3.org/2000/svg" version="1.1" viewBox="0 0 32 32">
 <defs>
  <style id="current-color-scheme" type="text/css">
   .ColorScheme-Text { color:#808080; }
  </style>
 </defs>
 <path class="ColorScheme-Text" d="M 15.861,24.946 C 18.585,27.67 22.4,28.554 25.871,27.668 L 27.532,26.007 C 27.532,26.007 28.593,24.946 27.532,23.886 L 22.971,19.325 C 21.91,18.264 20.85,19.325 20.85,19.325 L 20.32,19.855 C 19.439,20.736 18.019,20.736 17.138,19.855 L 12.149,14.866 C 11.268,13.985 11.268,12.565 12.149,11.684 L 12.679,11.154 C 12.679,11.154 13.74,10.093 12.679,9.033 L 8.118,4.472 C 7.057,3.411 5.997,4.472 5.997,4.472 L 4.336,6.133 C 3.45,9.6 4.334,13.415 7.058,16.143 Z" style="color:#808080;fill:currentColor"/>
</svg>
